svg/rdt_result_no_test_positive.svg

<svg width="48" height="48" viewBox="0 0 48 48" fill="none" xmlns="http://www.w3.org/2000/svg">
<path fill-rule="evenodd" clip-rule="evenodd" d="M24.2066 4.00786C19.0955 3.95623 14.1586 5.86346 10.4098 9.33789L10.4018 9.33009L10.2168 9.50779L10.0288 9.68549L10.0388 9.69529C6.27613 13.3674 4.11081 18.3735 4.01139 23.6301C3.91198 28.8868 5.88647 33.9711 9.50758 37.7829C13.1329 41.5916 18.1124 43.8193 23.3681 43.9838C28.6237 44.1483 33.7328 42.2364 37.5892 38.6619L37.5972 38.6699L37.7822 38.4919L37.9702 38.3139L37.9602 38.3049C41.7228 34.6328 43.8881 29.6267 43.9875 24.37C44.0869 19.1134 42.1123 14.029 38.4912 10.2173C36.6465 8.27947 34.4318 6.73147 31.9781 5.66494C29.5244 4.59841 26.8817 4.03503 24.2064 4.00816L24.2066 4.00786ZM23.0896 4.54695C25.8802 4.41506 28.6665 4.88482 31.2595 5.92438C33.8526 6.96393 36.1918 8.54896 38.1184 10.572C41.6464 14.2846 43.5707 19.2371 43.4749 24.3578C43.379 29.4785 41.2708 34.3555 37.6064 37.9336L10.7678 9.71499C14.1375 6.59377 18.5016 4.76338 23.0896 4.54695ZM10.3928 10.066L37.2314 38.2846C33.4747 41.7648 28.4988 43.626 23.3803 43.4656C18.2618 43.3053 13.4123 41.1362 9.88077 37.4276C6.35278 33.715 4.42851 28.7625 4.52433 23.6418C4.62015 18.5211 6.72835 13.6441 10.3928 10.066ZM9.18338 19.9769C6.97331 19.9769 5.19513 21.7568 5.19513 23.9668V24.0308C5.19513 26.2408 6.97331 28.0228 9.18338 28.0228H26.9892L24.6872 25.5978H9.47038C8.53479 25.5978 7.7787 24.8428 7.7787 23.9078C7.7787 22.9728 8.53479 22.2188 9.47008 22.2188H21.4789L19.351 19.9769H9.18308H9.18338ZM21.0562 19.9769L23.1852 22.2188H28.2881C29.2231 22.2188 29.9791 22.9728 29.9791 23.9078C29.9791 24.8428 29.2231 25.5978 28.2881 25.5978H26.3942L28.6961 28.0228H38.815C41.025 28.0228 42.804 26.2408 42.804 24.0308V23.9668C42.804 21.7568 41.025 19.9769 38.815 19.9769H21.0562ZM38.837 21.9648C39.955 21.9638 40.862 22.8698 40.862 23.9878C40.862 25.1058 39.955 26.0128 38.837 26.0118C37.719 26.0118 36.814 25.1058 36.813 23.9878C36.814 22.8708 37.719 21.9648 38.837 21.9648ZM33.4601 22.7068C34.1721 22.7068 34.7491 23.2838 34.7491 23.9958C34.7481 24.7068 34.1711 25.2838 33.4601 25.2828C32.7491 25.2828 32.1731 24.7068 32.1731 23.9958C32.1721 23.2848 32.7491 22.7078 33.4601 22.7068Z" fill="#333333"/>
</svg>

<?xml version="1.0" encoding="UTF-8" standalone="no"?>
<!-- Created with Inkscape (http://www.inkscape.org/) -->
<svg id="svg8" xmlns:rdf="http://www.w3.org/1999/02/22-rdf-syntax-ns#" xmlns="http://www.w3.org/2000/svg" xmlns:osb="http://www.openswatchbook.org/uri/2009/osb" height="48" width="48" version="1.1" enable-background="new" xmlns:cc="http://creativecommons.org/ns#" viewBox="0 0 12.7 12.7" xmlns:dc="http://purl.org/dc/elements/1.1/">
 <title id="title4753">UIO-icon</title>
 <metadata id="metadata5">
  <rdf:RDF>
   <cc:Work rdf:about="">
    <dc:format>image/svg+xml</dc:format>
    <dc:type rdf:resource="http://purl.org/dc/dcmitype/StillImage"/>
    <dc:title>UIO-icon</dc:title>
    <dc:creator>
     <cc:Agent>
      <dc:title>Joaquín Urbano</dc:title>
     </cc:Agent>
    </dc:creator>
    <dc:rights>
     <cc:Agent>
      <dc:title>GPL</dc:title>
     </cc:Agent>
    </dc:rights>
   </cc:Work>
  </rdf:RDF>
 </metadata>
 <g id="layer1" transform="translate(0,-284.3)" fill="#333">
  <path id="rect1007" d="m24.207 4.0078a20 20 0 0 0 -13.797 5.3301l-0.008-0.0078-0.185 0.1777-0.188 0.1777 0.01 0.0098a20 20 0 0 0 -0.5312 28.088 20 20 0 0 0 28.082 0.879l0.008 0.008 0.185-0.178 0.188-0.178-0.01-0.009a20 20 0 0 0 0.531 -28.088 20 20 0 0 0 -14.285 -6.2092zm-1.117 0.5391a19.484 19.484 0 0 1 15.029 6.0251 19.484 19.484 0 0 1 -0.512 27.362l-26.839-28.219a19.484 19.484 0 0 1 12.322 -5.1681zm-12.697 5.5191l26.839 28.219a19.484 19.484 0 0 1 -27.351 -0.857 19.484 19.484 0 0 1 0.512 -27.362zm-1.2094 9.911c-2.2101 0-3.9883 1.78-3.9883 3.99v0.064c0 2.21 1.7782 3.992 3.9883 3.992h17.806l-2.302-2.425h-15.217c-0.9356 0-1.6917-0.755-1.6917-1.69s0.7561-1.689 1.6914-1.689h12.009l-2.128-2.242h-10.168zm11.873 0l2.129 2.242h5.103c0.935 0 1.691 0.754 1.691 1.689s-0.756 1.69-1.691 1.69h-1.894l2.302 2.425h10.119c2.21 0 3.989-1.782 3.989-3.992v-0.064c0-2.21-1.779-3.99-3.989-3.99h-17.759zm17.781 1.988c1.118-0.001 2.025 0.905 2.025 2.023s-0.907 2.025-2.025 2.024c-1.118 0-2.023-0.906-2.024-2.024 0.001-1.117 0.906-2.023 2.024-2.023zm-5.377 0.742c0.712 0 1.289 0.577 1.289 1.289-0.001 0.711-0.578 1.288-1.289 1.287-0.711 0-1.287-0.576-1.287-1.287-0.001-0.711 0.576-1.288 1.287-1.289z" fill-rule="evenodd" transform="matrix(.26458 0 0 .26458 0 284.3)"/>
 </g>
</svg>
